synths/sXMR.svg

<svg width="42" height="42" viewBox="0 0 42 42" fill="none" xmlns="http://www.w3.org/2000/svg">
<g clip-path="url(#clip0_7277_57883)">
<mask id="mask0_7277_57883" style="mask-type:alpha" maskUnits="userSpaceOnUse" x="0" y="0" width="42" height="42">
<circle cx="21" cy="21" r="21" transform="matrix(-1 0 0 1 42 0)" fill="url(#paint0_linear_7277_57883)"/>
</mask>
<g mask="url(#mask0_7277_57883)">
<circle cx="21" cy="21" r="21" transform="matrix(-1 0 0 1 42 0)" fill="#34EDB3"/>
<circle cx="18.2" cy="18.2" r="18.2" transform="matrix(-1 0 0 1 39.2 2.80005)" fill="white"/>
</g>
<circle cx="16.1" cy="16.1" r="16.1" transform="matrix(-1 0 0 1 37.1 4.90002)" fill="#0B0B22"/>
<g clip-path="url(#clip1_7277_57883)">
<path d="M21.1 37.2C29.9918 37.2 37.2 29.9918 37.2 21.1C37.2 12.2082 29.9918 5 21.1 5C12.2082 5 5 12.2082 5 21.1C5 29.9918 12.2082 37.2 21.1 37.2Z" fill="#FF6600"/>
<path d="M21.0696 10.2678C27.092 10.2678 31.9623 15.1381 31.9623 21.1595C31.9582 22.333 31.7687 23.4985 31.4008 24.6129H28.1546V15.4621L21.0706 22.5461L13.9866 15.4621V24.6129H10.7394C10.3719 23.4985 10.1827 22.333 10.179 21.1595C10.179 15.1381 15.0492 10.2678 21.0706 10.2678H21.0696ZM19.4475 24.139L21.0998 25.7641L22.7229 24.14L25.7929 21.0407V26.7965H30.3684C29.3979 28.3926 28.0325 29.7118 26.404 30.6269C24.7755 31.542 22.9386 32.0221 21.0706 32.0209C17.1442 32.0209 13.6908 29.9259 11.7729 26.7965H16.3473V21.0407L19.4465 24.14L19.4475 24.139Z" fill="white"/>
</g>
</g>
<defs>
<linearGradient id="paint0_linear_7277_57883" x1="21" y1="0" x2="21" y2="61.4091" gradientUnits="userSpaceOnUse">
<stop stop-color="#08021E"/>
<stop offset="1" stop-color="#1F0777"/>
</linearGradient>
<clipPath id="clip0_7277_57883">
<rect width="42" height="42" fill="white"/>
</clipPath>
<clipPath id="clip1_7277_57883">
<rect width="32.2" height="32.2" fill="white" transform="translate(5 5)"/>
</clipPath>
</defs>
</svg>

<svg xmlns="http://www.w3.org/2000/svg" width="42" height="42" fill="none"><g clip-path="url(#a)"><mask id="c" width="42" height="42" x="0" y="0" maskUnits="userSpaceOnUse" style="mask-type:alpha"><circle cx="21" cy="21" r="21" fill="url(#b)" transform="matrix(-1 0 0 1 42 0)"/></mask><g mask="url(#c)"><circle cx="21" cy="21" r="21" fill="#34EDB3" transform="matrix(-1 0 0 1 42 0)"/><circle cx="18.2" cy="18.2" r="18.2" fill="#fff" transform="matrix(-1 0 0 1 39.2 2.8)"/></g><circle cx="16.1" cy="16.1" r="16.1" fill="#0B0B22" transform="matrix(-1 0 0 1 37.1 4.9)"/><g clip-path="url(#d)"><path fill="#F60" d="M21.1 37.2c8.892 0 16.1-7.208 16.1-16.1C37.2 12.208 29.992 5 21.1 5 12.208 5 5 12.208 5 21.1c0 8.892 7.208 16.1 16.1 16.1Z"/><path fill="#fff" d="M21.07 10.268c6.022 0 10.892 4.87 10.892 10.892a11.14 11.14 0 0 1-.561 3.453h-3.246v-9.15l-7.084 7.083-7.084-7.084v9.15h-3.248a11.139 11.139 0 0 1-.56-3.452c0-6.022 4.87-10.892 10.892-10.892h-.001Zm-1.622 13.871 1.652 1.625 1.623-1.624 3.07-3.1v5.757h4.575a10.874 10.874 0 0 1-9.297 5.224c-3.927 0-7.38-2.095-9.298-5.224h4.574V21.04l3.1 3.099v-.001Z"/></g></g><defs><clipPath id="a"><path fill="#fff" d="M0 0h42v42H0z"/></clipPath><clipPath id="d"><path fill="#fff" d="M5 5h32.2v32.2H5z"/></clipPath><linearGradient id="b" x1="21" x2="21" y1="0" y2="61.409" gradientUnits="userSpaceOnUse"><stop stop-color="#08021E"/><stop offset="1" stop-color="#1F0777"/></linearGradient></defs></svg>
